X: 128
T: No_212_The_Old_Bear_Makes_a_Noise.krn
N: Derived from No_212_The_Old_Bear_Makes_a_Noise.krn
%%abc-version 2.0
%%abcx-abcm2ps-target-version 5.9.1 (29 Sep 2008)
%%abc-creator hum2abc beta
%%abcx-conversion-date 2019/03/15 08:38:45
%%humdrum-veritas 3396869151
%%humdrum-veritas-data 1026096126
%%linebreak <none>
%%barnumbers 0
L: 1/8
M: 2/4
K: E clef=bass
[K:clef=bass][M:2/4]G,B, CC ]|:  
(B,G,)G,2 | 
B,G, G,G, | 
E,2B,, z | 
C,B,, E,G, | 
E,2B,, z | 
B,G, B,/G,/G, | 
B,/G,/(G,/E,/) G,(G,/E,/) ||  
[M:3/4]E,/E,/G, G,E, G,3//G,//G, ||  
[M:2/4]E,2B,, z | 
C,/C,/B,, E,G, | 
E,2B,, z | 
B,B, CC :|]  



